svgs/sharp-solid/file-doc.svg

<svg xmlns="http://www.w3.org/2000/svg" viewBox="0 0 512 512"><!--! Font Awesome Pro 6.6.0 by @fontawesome - https://fontawesome.com License - https://fontawesome.com/license (Commercial License) Copyright 2024 Fonticons, Inc. --><path d="M0 0L224 0l0 160 160 0 0 144-272 0 0 208L0 512 0 0zM384 128l-128 0L256 0 384 128zM176 352l32 0c26.5 0 48 21.5 48 48l0 64c0 26.5-21.5 48-48 48l-32 0-16 0 0-16 0-128 0-16 16 0zm16 128l16 0c8.8 0 16-7.2 16-16l0-64c0-8.8-7.2-16-16-16l-16 0 0 96zM456 352l16 0c22.1 0 40 17.9 40 40l0 8 0 16-32 0 0-16 0-8c0-4.4-3.6-8-8-8l-16 0c-4.4 0-8 3.6-8 8l0 80c0 4.4 3.6 8 8 8l16 0c4.4 0 8-3.6 8-8l0-8 0-16 32 0 0 16 0 8c0 22.1-17.9 40-40 40l-16 0c-22.1 0-40-17.9-40-40l0-80c0-22.1 17.9-40 40-40zM288 392c0-22.1 17.9-40 40-40l16 0c22.1 0 40 17.9 40 40l0 80c0 22.1-17.9 40-40 40l-16 0c-22.1 0-40-17.9-40-40l0-80zm40-8c-4.4 0-8 3.6-8 8l0 80c0 4.4 3.6 8 8 8l16 0c4.4 0 8-3.6 8-8l0-80c0-4.4-3.6-8-8-8l-16 0z"/></svg>

<svg xmlns="http://www.w3.org/2000/svg" viewBox="0 0 512 512"><!--! Font Awesome Pro 6.4.0 by @fontawesome - https://fontawesome.com License - https://fontawesome.com/license (Commercial License) Copyright 2023 Fonticons, Inc. --><path d="M0 0H224V160H384V304H112V512H0V0zM384 128H256V0L384 128zM176 352h32c26.5 0 48 21.5 48 48v64c0 26.5-21.5 48-48 48H176 160V496 368 352h16zm16 128h16c8.8 0 16-7.2 16-16V400c0-8.8-7.2-16-16-16H192v96zM456 352h16c22.1 0 40 17.9 40 40v8 16H480V400v-8c0-4.4-3.6-8-8-8H456c-4.4 0-8 3.6-8 8v80c0 4.4 3.6 8 8 8h16c4.4 0 8-3.6 8-8v-8V448h32v16 8c0 22.1-17.9 40-40 40H456c-22.1 0-40-17.9-40-40V392c0-22.1 17.9-40 40-40zM288 392c0-22.1 17.9-40 40-40h16c22.1 0 40 17.9 40 40v80c0 22.1-17.9 40-40 40H328c-22.1 0-40-17.9-40-40V392zm40-8c-4.4 0-8 3.6-8 8v80c0 4.4 3.6 8 8 8h16c4.4 0 8-3.6 8-8V392c0-4.4-3.6-8-8-8H328z"/></svg>
